X:1015
T:Tarantella Calabria
C:Traditional Italian
S:Colin Hume's website,  colinhume.com  - chords can also be printed below the stave.
Q:3/8=120
M:6/8
R:Jig
L:1/8
K:G
P:A
|: B2c | "G"ded "D7"cBA | "G"G2 B BAG | "D7"F2A c2e | "G"d2B B2c |\
"G"ded "D7"cBA | "G"G2B d2g | "D7"fed cBA | "G"G3 :|
P:B
|: G2A | "G"B2B BAB | "D7"c2F F2c | "D7"c2c cBc | "G"d2z "D7"def |\
"G"gfe dcB | "D7"A3 f2e | "D7"ded cBA |1 "G"G3 :|2 "G"G2 ||
P:C
|: d d^cd | "G"B2d d^cd | "D7"=c2d d^cd | "D7"=c2d c2d | "G"B2d d^cd |\
"G"B2d d^cd | "D7"=c2d d^cd | "D7"fed cBA | "G"G2 :|

